X:616
T:Reel 616
M:4/4
K:Amaj
L:1/8
 (3A,G,A, |E,>A, (3A,G,A, E,>A, (3A,G,A, |B,G,G,B, E,B,G,B,|C>A, (3A,G,A, E,>A, (3A,G,A, |B,G,F,E, F,G,A,G,:||2B,CDB, CA,B,G,| (3DEF EC D2|CD|E>A (3AGA E>A (3AGA |E>A, (3A,A,A, A2GA|BB,GB,  (3B,B,B, DB| (3BB,B, GE FB, (3B,F,G, |A,AAA GAF>A, (3CB,A, |EAGA cAGA|F>E (3DCB, CDB,G,|E,F,G,A, B,DCA,|
